modules/themify-icons/icons/back-left.svg

<?xml version="1.0" encoding="utf-8"?>
<!-- Generated by IcoMoon.io -->
<!DOCTYPE svg PUBLIC "-//W3C//DTD SVG 1.1//EN" "http://www.w3.org/Graphics/SVG/1.1/DTD/svg11.dtd">
<svg version="1.1" xmlns="http://www.w3.org/2000/svg" xmlns:xlink="http://www.w3.org/1999/xlink" width="17" height="17" viewBox="0 0 17 17">
<g>
</g>
	<path d="M15 7.5c0 3.033-2.467 5.5-5.5 5.5h-2.912l2.646 2.646-0.707 0.707-3.853-3.853 3.854-3.854 0.707 0.707-2.647 2.647h2.912c2.481 0 4.5-2.019 4.5-4.5s-2.019-4.5-4.5-4.5h-7.083v-1h7.083c3.033 0 5.5 2.467 5.5 5.5z" fill="#000000" />
</svg>

<svg xmlns="http://www.w3.org/2000/svg" width="17" height="17"><path d="M15 7.5c0 3.033-2.467 5.5-5.5 5.5H6.588l2.646 2.646-.707.707L4.674 12.5l3.854-3.854.707.707L6.588 12H9.5c2.481 0 4.5-2.019 4.5-4.5S11.981 3 9.5 3H2.417V2H9.5C12.533 2 15 4.467 15 7.5z"/></svg>
